cssgg/signal.svg

<svg
  width="24"
  height="24"
  viewBox="0 0 24 24"
  fill="none"
  xmlns="http://www.w3.org/2000/svg"
>
  <path
    d="M15 7C15 6.44772 15.4477 6 16 6C16.5523 6 17 6.44772 17 7V17C17 17.5523 16.5523 18 16 18C15.4477 18 15 17.5523 15 17V7Z"
    fill="currentColor"
  />
  <path
    d="M7 15C7 14.4477 7.44772 14 8 14C8.55228 14 9 14.4477 9 15V17C9 17.5523 8.55228 18 8 18C7.44772 18 7 17.5523 7 17V15Z"
    fill="currentColor"
  />
  <path
    d="M12 10C11.4477 10 11 10.4477 11 11V17C11 17.5523 11.4477 18 12 18C12.5523 18 13 17.5523 13 17V11C13 10.4477 12.5523 10 12 10Z"
    fill="currentColor"
  />
</svg>

<svg viewBox="0 0 24 24" xmlns="http://www.w3.org/2000/svg"><g><path d="M15 7c0-.56.44-1 1-1 .55 0 1 .44 1 1v10c0 .55-.45 1-1 1 -.56 0-1-.45-1-1V7Z"/><path d="M7 15c0-.56.44-1 1-1 .55 0 1 .44 1 1v2c0 .55-.45 1-1 1 -.56 0-1-.45-1-1v-2Z"/><path d="M12 10c-.56 0-1 .44-1 1v6c0 .55.44 1 1 1 .55 0 1-.45 1-1v-6c0-.56-.45-1-1-1Z"/></g></svg>
